packages/core/src/svgs/ousd.svg

<svg width="24" height="24" viewBox="0 0 24 24" fill="none" xmlns="http://www.w3.org/2000/svg">
<g clip-path="url(#clip0_31_15636)">
<path d="M0 0H24V24H0V0Z" fill="url(#paint0_linear_31_15636)"/>
<path d="M8.45151 15.8667C8.35525 15.7537 8.26649 15.6346 8.18579 15.5101C8.1525 15.4581 8.11704 15.4074 8.07951 15.3584C8.07094 15.3494 8.06194 15.3314 8.05294 15.3224C8.02636 15.2778 7.99122 15.2242 7.96465 15.1707L7.93808 15.1175C7.91151 15.0729 7.88494 15.019 7.85836 14.9748L7.83179 14.9212C7.80289 14.8733 7.77918 14.8225 7.76108 14.7695C7.75208 14.752 7.74308 14.725 7.73451 14.7074C7.70794 14.6538 7.68994 14.6088 7.66379 14.5552C7.65479 14.5377 7.64579 14.5197 7.63679 14.4931C7.61965 14.4395 7.59265 14.386 7.57508 14.3324C7.57508 14.3238 7.56651 14.3058 7.56651 14.2968C7.52108 14.1733 7.47963 14.0484 7.44222 13.9222C7.44222 13.9137 7.43365 13.9042 7.43365 13.8867C7.42508 13.8421 7.40665 13.7975 7.39808 13.7525L7.37151 13.6454C7.36294 13.6012 7.35394 13.5652 7.34494 13.5211C7.33636 13.4851 7.32736 13.4405 7.31836 13.405C7.30979 13.3604 7.30079 13.3248 7.29179 13.2798L7.26522 13.1461C7.25665 13.1105 7.25665 13.066 7.24765 13.0304C7.23908 12.9858 7.23008 12.9412 7.23008 12.8877C7.22151 12.8517 7.22151 12.8161 7.21208 12.772C7.20351 12.718 7.20351 12.6734 7.19494 12.6198C7.19494 12.5842 7.18551 12.5487 7.18551 12.5127C7.18551 12.4505 7.17694 12.397 7.17694 12.3344C7.17694 12.3078 7.17694 12.2812 7.16836 12.2452C7.16836 12.1561 7.15894 12.067 7.15894 11.9778C7.15894 11.8887 7.15894 11.8081 7.16794 11.7194V11.6388C7.16794 11.5762 7.17651 11.5231 7.17651 11.4605C7.17651 11.434 7.18551 11.398 7.18551 11.3714C7.19451 11.3178 7.19451 11.2557 7.20351 11.2017C7.20351 11.1751 7.21208 11.1481 7.21208 11.1215C7.22033 11.056 7.22918 10.9906 7.23865 10.9252C7.23865 10.9072 7.23865 10.8897 7.24722 10.8807C7.25665 10.8005 7.27422 10.72 7.29179 10.6398C7.30036 10.6132 7.30036 10.5862 7.30979 10.5687C7.31836 10.5151 7.33636 10.4615 7.34494 10.408C7.35505 10.3792 7.36097 10.3492 7.36251 10.3188C7.37151 10.2652 7.38908 10.2202 7.39808 10.1671C7.40665 10.1405 7.41565 10.1045 7.42465 10.078C7.44222 10.0244 7.45979 9.97081 7.46879 9.91724C7.47736 9.89066 7.48636 9.87267 7.49536 9.84609L7.57508 9.63181C7.58365 9.60524 7.59265 9.58724 7.60165 9.56067C7.61922 9.50709 7.63679 9.46252 7.66336 9.40895C7.67236 9.38238 7.68994 9.35538 7.69894 9.31981C7.71651 9.27524 7.73451 9.23966 7.76108 9.19509C7.77822 9.16809 7.78765 9.13252 7.80522 9.10595C7.82279 9.06095 7.84936 9.02538 7.86694 8.98081C7.88494 8.95424 7.89351 8.92724 7.91151 8.90066L8.01779 8.71338C7.93808 9.00781 7.90208 9.32881 7.90208 9.66781C7.90208 10.8271 8.38936 11.7104 9.35408 12.3078C9.40679 13.3514 9.70808 14.1721 10.2211 14.6984L8.45151 15.8667Z" fill="url(#paint1_linear_31_15636)"/>
<path d="M14.0623 9.62333C14.3631 10.0776 14.5577 10.6489 14.6284 11.3359C14.8761 11.4516 15.0887 11.5853 15.2833 11.737C16.0003 12.2989 16.3633 13.1196 16.3633 14.1628C16.3633 14.2879 16.3543 14.413 16.3453 14.5378V14.5292C17.2307 12.5196 16.9397 9.7579 15.504 8.07275L14.0623 9.62333Z" fill="url(#paint2_linear_31_15636)"/>
<path fill-rule="evenodd" clip-rule="evenodd" d="M12.8215 10.9974C12.8763 11.0102 12.932 11.0226 12.9912 11.0321C14.4689 11.3265 16.1682 11.9419 16.1596 14.2078C16.1596 14.5468 16.124 14.8678 16.0443 15.1532C15.8968 15.4155 15.7249 15.6633 15.5309 15.8934C15.0179 16.4998 14.3892 16.9459 13.6726 17.2134C13.6398 17.2232 13.6072 17.2338 13.5749 17.2451C13.5427 17.256 13.5102 17.2663 13.4776 17.2759C13.4137 17.2974 13.3495 17.3171 13.2856 17.3342V18.9156H10.7142V17.3162C9.97188 17.0535 8.84388 16.3554 8.44231 15.8758V15.8132L10.1686 14.6445C10.4053 14.8888 10.6884 15.0833 11.0013 15.2166C11.3143 15.3499 11.6507 15.4193 11.9909 15.4206C13.2299 15.4206 13.823 14.7431 13.823 14.1992C13.823 13.3271 12.995 13.1736 12.0333 12.9958L12.0265 12.9949C11.7439 12.9504 11.4633 12.8938 11.1856 12.8252C9.64574 12.4506 8.07031 11.7816 8.07031 9.67692C8.07031 9.06107 8.20317 8.52578 8.46888 8.08007C9.61917 6.7245 10.4253 6.64007 10.6503 6.61649C10.6962 6.61178 10.718 6.60921 10.7142 6.59935V5.14307H13.2856V6.62592C14.2302 6.84578 14.918 7.37164 15.5399 8.11564L15.5485 8.16921L14.1239 9.64092L14.0639 9.62807C13.6036 8.94107 12.8849 8.57078 11.9909 8.57078C10.991 8.57078 10.4335 9.0255 10.4335 9.59635C10.4335 10.5092 11.3677 10.6999 12.6642 10.9648L12.6899 10.9699C12.7336 10.9781 12.7773 10.9875 12.8215 10.9974Z" fill="#FAFBFC"/>
<mask id="mask0_31_15636" style="mask-type:alpha" maskUnits="userSpaceOnUse" x="15" y="6" width="3" height="3">
<path d="M15.7239 6.04199H17.958V8.27785H15.7243L15.7239 6.04199Z" fill="white"/>
</mask>
<g mask="url(#mask0_31_15636)">
<path fill-rule="evenodd" clip-rule="evenodd" d="M17.958 7.15971C17.1429 7.15971 16.8412 7.42542 16.8412 8.27828C16.8412 7.42585 16.539 7.15971 15.7239 7.15971C16.539 7.15971 16.8412 6.89399 16.8412 6.04199C16.8412 6.89399 17.1429 7.15971 17.958 7.15971Z" fill="white"/>
</g>
</g>
<defs>
<linearGradient id="paint0_linear_31_15636" x1="4.46486" y1="4.16229" x2="29.2059" y2="32.5787" gradientUnits="userSpaceOnUse">
<stop stop-color="#1A1E21"/>
<stop offset="1" stop-color="#06060A"/>
</linearGradient>
<linearGradient id="paint1_linear_31_15636" x1="8.71765" y1="14.4048" x2="7.14994" y2="8.18281" gradientUnits="userSpaceOnUse">
<stop offset="0.001" stop-color="white"/>
<stop offset="1" stop-color="#1E313F"/>
</linearGradient>
<linearGradient id="paint2_linear_31_15636" x1="15.3985" y1="9.24704" x2="16.8141" y2="15.052" gradientUnits="userSpaceOnUse">
<stop offset="0.001" stop-color="white"/>
<stop offset="0.997" stop-color="#4E5A64"/>
</linearGradient>
<clipPath id="clip0_31_15636">
<rect width="24" height="24" fill="white"/>
</clipPath>
</defs>
</svg>

<svg xmlns="http://www.w3.org/2000/svg" width="24" height="24" fill="none" viewBox="0 0 24 24"><g clip-path="url(#a)"><path fill="url(#b)" d="M0 0h24v24H0z"/><path fill="url(#c)" d="M8.452 15.867a3 3 0 0 1-.266-.357 2 2 0 0 0-.106-.152c-.01-.009-.018-.027-.027-.036-.027-.044-.062-.098-.088-.151l-.027-.053c-.026-.045-.053-.099-.08-.143l-.026-.054a1 1 0 0 1-.07-.151c-.01-.018-.019-.045-.027-.063-.027-.053-.045-.098-.071-.152a.4.4 0 0 1-.027-.062c-.017-.053-.044-.107-.062-.16 0-.01-.008-.027-.008-.036a6 6 0 0 1-.125-.375c0-.008-.008-.018-.008-.035-.009-.045-.027-.09-.036-.135l-.026-.107-.027-.124-.027-.116c-.008-.045-.017-.08-.026-.125l-.027-.134c-.008-.036-.008-.08-.017-.116-.009-.044-.018-.089-.018-.142-.008-.036-.008-.072-.018-.116-.008-.054-.008-.099-.017-.152 0-.036-.01-.071-.01-.107 0-.062-.008-.116-.008-.179 0-.026 0-.053-.009-.089 0-.089-.01-.178-.01-.267s0-.17.01-.259v-.08c0-.063.009-.116.009-.178 0-.027.009-.063.009-.09.009-.053.009-.115.018-.17 0-.026.008-.053.008-.08l.027-.196q-.002-.029.008-.044.017-.12.045-.241c.008-.027.008-.054.018-.071.008-.054.026-.108.035-.161a.3.3 0 0 0 .018-.09c.009-.053.026-.098.035-.15l.027-.09c.017-.054.035-.107.044-.16.008-.027.017-.045.026-.072l.08-.214c.009-.027.018-.045.027-.071.017-.054.035-.098.061-.152.01-.027.027-.054.036-.09a1 1 0 0 1 .062-.124c.017-.027.027-.062.044-.09.018-.044.044-.08.062-.124.018-.027.027-.054.045-.08l.106-.188a3.7 3.7 0 0 0-.116.955c0 1.16.487 2.042 1.452 2.64.053 1.043.354 1.864.867 2.39z"/><path fill="url(#d)" d="M14.062 9.623c.301.455.496 1.026.566 1.713.248.116.46.25.655.401.717.562 1.08 1.383 1.08 2.426 0 .125-.009.25-.018.375v-.009c.886-2.01.595-4.771-.841-6.456z"/><path fill="#FAFBFC" fill-rule="evenodd" d="M12.822 10.997q.08.02.17.035c1.477.294 3.176.91 3.168 3.176 0 .339-.036.66-.116.945q-.222.394-.513.74a4.47 4.47 0 0 1-1.858 1.32q-.05.014-.098.032-.049.017-.097.03a3 3 0 0 1-.192.06v1.58h-2.572v-1.599c-.742-.262-1.87-.96-2.272-1.44v-.063l1.727-1.168a2.55 2.55 0 0 0 1.822.776c1.239 0 1.832-.678 1.832-1.222 0-.872-.828-1.025-1.79-1.203l-.006-.001a10 10 0 0 1-.841-.17c-1.54-.374-3.116-1.043-3.116-3.148q0-.926.399-1.597c1.15-1.356 1.956-1.44 2.181-1.464q.07-.004.064-.017V5.143h2.572v1.483c.944.22 1.632.746 2.254 1.49l.009.053-1.425 1.472-.06-.013c-.46-.687-1.18-1.057-2.073-1.057-1 0-1.557.454-1.557 1.025 0 .913.934 1.104 2.23 1.369l.026.005z" clip-rule="evenodd"/><mask id="e" width="3" height="3" x="15" y="6" maskUnits="userSpaceOnUse" style="mask-type:alpha"><path fill="#fff" d="M15.724 6.042h2.234v2.236h-2.234z"/></mask><g mask="url(#e)"><path fill="#fff" fill-rule="evenodd" d="M17.958 7.16c-.815 0-1.117.265-1.117 1.118 0-.852-.302-1.118-1.117-1.118.815 0 1.117-.266 1.117-1.118 0 .852.302 1.118 1.117 1.118" clip-rule="evenodd"/></g></g><defs><linearGradient id="b" x1="4.465" x2="29.206" y1="4.162" y2="32.579" gradientUnits="userSpaceOnUse"><stop stop-color="#1A1E21"/><stop offset="1" stop-color="#06060A"/></linearGradient><linearGradient id="c" x1="8.718" x2="7.15" y1="14.405" y2="8.183" gradientUnits="userSpaceOnUse"><stop offset=".001" stop-color="#fff"/><stop offset="1" stop-color="#1E313F"/></linearGradient><linearGradient id="d" x1="15.399" x2="16.814" y1="9.247" y2="15.052" gradientUnits="userSpaceOnUse"><stop offset=".001" stop-color="#fff"/><stop offset=".997" stop-color="#4E5A64"/></linearGradient><clipPath id="a"><path fill="#fff" d="M0 0h24v24H0z"/></clipPath></defs></svg>
